modules/feathericon/icons/desktop.svg

<?xml version="1.0" encoding="UTF-8"?>
<svg width="24px" height="24px" viewBox="0 0 24 24" version="1.1" xmlns="http://www.w3.org/2000/svg" xmlns:xlink="http://www.w3.org/1999/xlink">
    <!-- Generator: sketchtool 52.2 (67145) - http://www.bohemiancoding.com/sketch -->
    <title>desktop</title>
    <desc>Created with sketchtool.</desc>
    <g id="devices" stroke="none" stroke-width="1" fill="none" fill-rule="evenodd">
        <g id="desktop" fill="#000000">
            <path d="M13,18 L15,18 C15.5522847,18 16,18.4477153 16,19 C16,19.5522847 15.5522847,20 15,20 L9,20 C8.44771525,20 8,19.5522847 8,19 C8,18.4477153 8.44771525,18 9,18 L11,18 L11,16 L4,16 C2.8954305,16 2,15.1045695 2,14 L2,6 C2,4.8954305 2.8954305,4 4,4 L20,4 C21.1045695,4 22,4.8954305 22,6 L22,14 C22,15.1045695 21.1045695,16 20,16 L13,16 L13,18 Z M4,6 L4,14 L20,14 L20,6 L4,6 Z" id="Shape"></path>
        </g>
    </g>
</svg>

<svg width="24" height="24" viewBox="0 0 24 24" xmlns="http://www.w3.org/2000/svg"><path d="M13 18h2a1 1 0 0 1 0 2H9a1 1 0 0 1 0-2h2v-2H4a2 2 0 0 1-2-2V6a2 2 0 0 1 2-2h16a2 2 0 0 1 2 2v8a2 2 0 0 1-2 2h-7v2zM4 6v8h16V6H4z" fill="#000" fill-rule="evenodd"/></svg>
